docs/img/icon1/services-afterClick-title_commas.svg

<svg width="158" height="102" viewBox="0 0 158 102" fill="none" xmlns="http://www.w3.org/2000/svg">
<g id="Group 314">
<path id="&#226;&#128;&#156;&#226;&#128;&#157;" d="M71.086 3.78182L71.1644 3.86948L71.2526 3.94733C72.2712 4.84656 73.0411 6.596 73.0411 9.792V20.672C73.0411 23.8424 72.2817 25.7617 71.1669 26.8689L72.5763 28.288L71.1669 26.8689C70.2677 27.7619 68.4628 28.464 65.1817 28.464H42.7241C39.9416 28.464 37.5293 29.3255 35.7901 31.2683C34.0616 33.0142 33.3296 35.3855 33.3296 38.08V42.16V44.16H35.3296H65.1817C68.4085 44.16 70.1785 44.9278 71.086 45.9418L71.1644 46.0295L71.2526 46.1073C72.2712 47.0066 73.0411 48.756 73.0411 51.952V92.208C73.0411 95.3784 72.2817 97.2977 71.1669 98.405C70.2677 99.298 68.4628 100 65.1817 100H9.85942C6.69321 100 4.73545 99.346 3.60402 98.4014C2.6565 97.2818 2 95.3456 2 92.208V41.072C2 27.6255 5.55772 18.0101 12.308 11.8088L12.3094 11.8075C19.3541 5.32295 28.6947 2 40.5331 2H65.1817C68.4085 2 70.1784 2.76782 71.086 3.78182Z" stroke="#FF7D04" stroke-width="4"/>
<path id="&#226;&#128;&#156;&#226;&#128;&#157;_2" d="M154.072 3.77065L154.15 3.85889L154.237 3.93741C155.239 4.8348 156 6.58825 156 9.792V20.672C156 23.8496 155.249 25.7732 154.152 26.8796C153.274 27.7646 151.511 28.464 148.288 28.464H126.165C123.408 28.464 121.02 29.3319 119.303 31.2793C117.599 33.0264 116.881 35.3937 116.881 38.08V42.16V44.16H118.881H148.288C151.455 44.16 153.184 44.9239 154.072 45.9307L154.15 46.0189L154.237 46.0974C155.239 46.9948 156 48.7482 156 51.952V92.208C156 95.3856 155.249 97.3092 154.152 98.4156C153.274 99.3006 151.511 100 148.288 100H93.7912C90.6825 100 88.7673 99.3489 87.6608 98.4119C86.7273 97.2915 86.079 95.3507 86.079 92.208V41.072C86.079 27.6172 89.5869 17.9981 96.2344 11.7986L96.2359 11.7973C103.17 5.318 112.359 2 124.007 2H148.288C151.455 2 153.184 2.76393 154.072 3.77065Z" stroke="#FF7D04" stroke-width="4"/>
</g>
</svg>

<svg width="158" height="102" fill="none" xmlns="http://www.w3.org/2000/svg"><path d="M71.086 3.782l.078.087.089.078c1.018.9 1.788 2.649 1.788 5.845v10.88c0 3.17-.76 5.09-1.874 6.197l1.41 1.419-1.41-1.42c-.9.894-2.704 1.596-5.985 1.596H42.724c-2.782 0-5.195.862-6.934 2.804-1.728 1.746-2.46 4.117-2.46 6.812v6.08h31.852c3.227 0 4.996.768 5.904 1.782l.078.087.089.078c1.018.9 1.788 2.649 1.788 5.845v40.256c0 3.17-.76 5.09-1.874 6.197-.9.893-2.704 1.595-5.985 1.595H9.859c-3.166 0-5.124-.654-6.255-1.599C2.656 97.281 2 95.346 2 92.208V41.072C2 27.625 5.558 18.01 12.308 11.809l.001-.002C19.354 5.323 28.695 2 40.533 2h24.649c3.227 0 4.996.768 5.904 1.782zm82.986-.012l.078.089.087.078c1.002.898 1.763 2.651 1.763 5.855v10.88c0 3.178-.751 5.101-1.848 6.208-.878.885-2.641 1.584-5.864 1.584h-22.123c-2.757 0-5.145.868-6.862 2.815-1.704 1.747-2.422 4.115-2.422 6.801v6.08h31.407c3.167 0 4.896.764 5.784 1.77l.078.089.087.078c1.002.898 1.763 2.651 1.763 5.855v40.256c0 3.178-.751 5.101-1.848 6.208-.878.885-2.641 1.584-5.864 1.584H93.791c-3.108 0-5.024-.651-6.13-1.588-.934-1.12-1.582-3.061-1.582-6.204V41.072c0-13.455 3.508-23.074 10.155-29.273l.002-.002C103.17 5.318 112.359 2 124.007 2h24.281c3.167 0 4.896.764 5.784 1.77z" stroke="#FF7D04" stroke-width="4"/></svg>
